X: 118101
Q: "Strathspey."
M: C
L: 1/8
K: Em
|: ue |\
vB<uE vB>uA B<E B>A | F<A D>A d>A B/A/G/F/ |\
uf |:\
vg>vfue>ub g<e b>ug |
va>vfud>ua f<d a>uf |\
[1 g>fe>b g<e b>g | a>fd>f g<e e>f :|\
[2 (3gab (3efg (3fga (3def | (3B^cd (3FGA B<E E |]


